Hatter-kde/actions/22/path-simplify.svg

<svg xmlns="http://www.w3.org/2000/svg" viewBox="0 0 22 22">
  <defs id="defs3051">
    <style type="text/css" id="current-color-scheme">
      .ColorScheme-Text {
        color:#363636;
      }
      </style>
  </defs>
 <path 
     style="fill:currentColor;fill-opacity:1;stroke:none" 
     d="M 10.957031 3.0019531 C 10.615931 3.0019531 10.293287 3.1298413 10.054688 3.3320312 C 9.816087 3.5342014 9.6523506 3.7933825 9.5253906 4.0703125 C 9.2714506 4.6241625 9.1481612 5.2756606 9.0195312 5.9003906 C 8.8909014 6.5251206 8.7577514 7.1226194 8.5820312 7.5058594 C 8.4941313 7.6974794 8.4003664 7.8292506 8.3164062 7.9003906 C 8.2324063 7.9715906 8.1674264 8 8.0351562 8 C 7.9061363 8 7.8426325 7.9723575 7.7578125 7.8984375 C 7.6729125 7.8245375 7.5751881 7.6866912 7.4863281 7.4882812 C 7.3085781 7.0914512 7.175965 6.4766269 7.046875 5.8417969 C 6.917775 5.2069669 6.7951525 4.5545262 6.5390625 4.0039062 C 6.4110225 3.7285963 6.2435938 3.4693206 5.9960938 3.2753906 C 5.7486138 3.0814506 5.4156487 2.9758364 5.0742188 3.0039062 C 4.4209388 3.0576064 3.9536775 3.5488962 3.6484375 4.0976562 C 3.3431775 4.6464063 3.1504056 5.3039056 3.0097656 5.9472656 C 3.0057656 5.9660656 3.004 5.9832531 3 6.0019531 L 4.0019531 6.0019531 C 4.1277631 5.4722431 4.2920006 4.9551869 4.4941406 4.5917969 C 4.7176306 4.1900269 4.9320906 4.0198931 5.1503906 4.0019531 C 5.2808106 3.9912531 5.33202 4.0121125 5.40625 4.0703125 C 5.48045 4.1285125 5.5736664 4.2476238 5.6601562 4.4335938 C 5.8331463 4.8055237 5.96481 5.412845 6.09375 6.046875 C 6.22268 6.680905 6.3487125 7.34174 6.6015625 7.90625 C 6.7279825 8.1885 6.8889131 8.4528463 7.1269531 8.6601562 C 7.3649831 8.8674763 7.6888531 9 8.0332031 9 C 8.3743031 9 8.6969469 8.874055 8.9355469 8.671875 C 9.1741469 8.469695 9.3378838 8.2085606 9.4648438 7.9316406 C 9.7187838 7.3777906 9.8420631 6.7302087 9.9707031 6.1054688 C 10.099333 5.4807388 10.232493 4.8793338 10.408203 4.4960938 C 10.496103 4.3044637 10.591811 4.1746556 10.675781 4.1035156 C 10.759781 4.0323156 10.824761 4.0019531 10.957031 4.0019531 C 11.089301 4.0019531 11.152285 4.0313625 11.234375 4.1015625 C 11.316375 4.1717625 11.410124 4.3028206 11.496094 4.4941406 C 11.668024 4.8767706 11.794542 5.4778956 11.919922 6.1035156 C 12.045292 6.7291256 12.169734 7.3775336 12.427734 7.9335938 C 12.556724 8.2116236 12.723617 8.4744013 12.966797 8.6757812 C 13.209987 8.8771613 13.533876 9 13.878906 9 C 14.223936 9 14.550689 8.8761681 14.792969 8.6738281 C 15.035249 8.4714781 15.199562 8.2099906 15.326172 7.9316406 C 15.579362 7.3749306 15.696589 6.7262925 15.818359 6.1015625 C 15.940139 5.4768125 16.065271 4.8764838 16.238281 4.4960938 C 16.324781 4.3058937 16.420879 4.1764487 16.505859 4.1054688 C 16.590859 4.0344686 16.660674 4.0019531 16.802734 4.0019531 C 17.086884 4.0019531 17.284916 4.1564956 17.509766 4.5410156 C 17.721616 4.9032756 17.888106 5.4447831 18.003906 6.0019531 L 19 6.0019531 C 18.994 5.9685531 18.990575 5.9377969 18.984375 5.9042969 C 18.856485 5.2481469 18.670786 4.5799237 18.347656 4.0273438 C 18.024526 3.4747637 17.492784 3.0019531 16.802734 3.0019531 C 16.457704 3.0019531 16.130952 3.1277181 15.888672 3.3300781 C 15.646382 3.5324281 15.482079 3.7939156 15.355469 4.0722656 C 15.102279 4.6289756 14.985061 5.2795669 14.863281 5.9042969 C 14.741511 6.5290269 14.616379 7.1274125 14.443359 7.5078125 C 14.356859 7.6980125 14.260761 7.8274575 14.175781 7.8984375 C 14.090881 7.9694375 14.020976 8 13.878906 8 C 13.736836 8 13.664995 7.9684644 13.578125 7.8964844 C 13.491225 7.8244844 13.395041 7.6944362 13.306641 7.5039062 C 13.129851 7.1228763 13.00003 6.5261938 12.875 5.9023438 C 12.74998 5.2784937 12.629989 4.6286787 12.380859 4.0742188 C 12.256289 3.7969887 12.097055 3.5371444 11.859375 3.3339844 C 11.621695 3.1308144 11.298131 3.0019531 10.957031 3.0019531 z M 8 11 C 6.83333 11 5.5571638 11.537834 4.5273438 12.052734 C 3.7742437 12.429294 3.27707 12.734566 3 12.910156 L 3 14.101562 L 3.2773438 13.916016 C 3.2773438 13.916016 4.0024662 13.432366 4.9726562 12.947266 C 5.9428363 12.462176 7.16667 12 8 12 C 8.33333 12 8.7418886 12.182391 9.1992188 12.525391 C 9.6565487 12.868391 10.146484 13.353516 10.646484 13.853516 C 11.146484 14.353516 11.656549 14.868391 12.199219 15.275391 C 12.741889 15.682391 13.33333 16 14 16 C 15.16667 16 16.442836 15.462176 17.472656 14.947266 C 18.225286 14.570946 18.72268 14.265574 19 14.089844 L 19 12.898438 L 18.722656 13.083984 C 18.722656 13.083984 17.997534 13.567644 17.027344 14.052734 C 16.057164 14.537834 14.83333 15 14 15 C 13.66667 15 13.258111 14.819564 12.800781 14.476562 C 12.343451 14.133564 11.853516 13.646484 11.353516 13.146484 C 10.853516 12.646484 10.343451 12.133564 9.8007812 11.726562 C 9.2581114 11.319562 8.66667 11 8 11 z M 3 18 L 3 19 L 19 19 L 19 18 L 3 18 z "
     class="ColorScheme-Text"
     />
</svg>

<?xml version="1.0" encoding="UTF-8"?>
<svg viewBox="0 0 22 22" xmlns="http://www.w3.org/2000/svg">
 <defs id="defs3051">
  <style id="current-color-scheme" type="text/css">.ColorScheme-Text {
        color:#363636;
      }</style>
 </defs>
 <path class="ColorScheme-Text" d="m10.957 3.002c-0.3411 0-0.66374 0.12789-0.90234 0.33008-0.2386 0.20217-0.40234 0.46135-0.5293 0.73828-0.25394 0.55385-0.37723 1.2053-0.50586 1.8301-0.12863 0.62473-0.26178 1.2222-0.4375 1.6055-0.0879 0.19162-0.18166 0.32339-0.26562 0.39453-0.084 0.0712-0.14898 0.099609-0.28125 0.099609-0.12902 0-0.19252-0.027642-0.27734-0.10156-0.0849-0.0739-0.18262-0.21175-0.27148-0.41016-0.17775-0.39683-0.31036-1.0117-0.43945-1.6465-0.1291-0.63483-0.25172-1.2873-0.50781-1.8379-0.12804-0.27531-0.29547-0.53459-0.54297-0.72852-0.24748-0.19394-0.58045-0.29955-0.92188-0.27148-0.65328 0.0537-1.1205 0.54499-1.4258 1.0938-0.30526 0.54875-0.49803 1.2062-0.63867 1.8496-4e-3 0.0188-0.0057656 0.035988-0.0097656 0.054688h1.002c0.12581-0.52971 0.29005-1.0468 0.49219-1.4102 0.22349-0.40177 0.43795-0.5719 0.65625-0.58984 0.13042-0.0107 0.18163 0.010159 0.25586 0.068359 0.0742 0.0582 0.16742 0.17731 0.25391 0.36328 0.17299 0.37193 0.30465 0.97925 0.43359 1.6133 0.12893 0.63403 0.25496 1.2949 0.50781 1.8594 0.12642 0.28225 0.28735 0.5466 0.52539 0.75391 0.23803 0.20732 0.5619 0.33984 0.90625 0.33984 0.3411 0 0.66374-0.12594 0.90234-0.32812s0.40234-0.46331 0.5293-0.74023c0.25394-0.55385 0.37722-1.2014 0.50586-1.8262 0.12863-0.62473 0.26179-1.2261 0.4375-1.6094 0.0879-0.19163 0.18361-0.32144 0.26758-0.39258 0.084-0.0712 0.14898-0.10156 0.28125-0.10156s0.19525 0.029409 0.27734 0.099609c0.082 0.0702 0.17575 0.20126 0.26172 0.39258 0.17193 0.38263 0.29845 0.98376 0.42383 1.6094 0.12537 0.62561 0.24981 1.274 0.50781 1.8301 0.12899 0.27803 0.29588 0.54081 0.53906 0.74219 0.24319 0.20138 0.56708 0.32422 0.91211 0.32422s0.67178-0.12383 0.91406-0.32617c0.24228-0.20235 0.40659-0.46384 0.5332-0.74219 0.25319-0.55671 0.37042-1.2053 0.49219-1.8301 0.12178-0.62475 0.24691-1.2251 0.41992-1.6055 0.0865-0.1902 0.1826-0.31965 0.26758-0.39062 0.085-0.071 0.15482-0.10352 0.29688-0.10352 0.28415 0 0.48218 0.15454 0.70703 0.53906 0.21185 0.36226 0.37834 0.90377 0.49414 1.4609h0.99609c-6e-3 -0.0334-0.009425-0.064156-0.015625-0.097656-0.12789-0.65615-0.31359-1.3244-0.63672-1.877-0.32313-0.55258-0.85487-1.0254-1.5449-1.0254-0.34503 0-0.67178 0.12576-0.91406 0.32812-0.24229 0.20235-0.40659 0.46384-0.5332 0.74219-0.25319 0.55671-0.37041 1.2073-0.49219 1.832-0.12177 0.62473-0.2469 1.2231-0.41992 1.6035-0.0865 0.1902-0.1826 0.31964-0.26758 0.39062-0.0849 0.071-0.1548 0.10156-0.29688 0.10156s-0.21391-0.031536-0.30078-0.10352c-0.0869-0.072-0.18308-0.20205-0.27148-0.39258-0.17679-0.38103-0.30661-0.97771-0.43164-1.6016-0.12502-0.62385-0.24501-1.2737-0.49414-1.8281-0.12457-0.27723-0.2838-0.53707-0.52148-0.74023-0.23768-0.20317-0.56124-0.33203-0.90234-0.33203zm-2.957 7.998c-1.1667 0-2.4428 0.53783-3.4727 1.0527-0.7531 0.37656-1.2503 0.68183-1.5273 0.85742v1.1914l0.27734-0.18555s0.72512-0.48365 1.6953-0.96875c0.97018-0.48509 2.194-0.94727 3.0273-0.94727 0.33333 0 0.74189 0.18239 1.1992 0.52539 0.45733 0.343 0.94727 0.82812 1.4473 1.3281s1.0101 1.0149 1.5527 1.4219 1.1341 0.72461 1.8008 0.72461c1.1667 0 2.4428-0.53782 3.4727-1.0527 0.75263-0.37632 1.25-0.68169 1.5273-0.85742v-1.1914l-0.27734 0.18555s-0.72512 0.48366-1.6953 0.96875c-0.97018 0.4851-2.194 0.94727-3.0273 0.94727-0.33333 0-0.74189-0.18044-1.1992-0.52344-0.45733-0.343-0.94726-0.83008-1.4473-1.3301s-1.0101-1.0129-1.5527-1.4199c-0.54267-0.407-1.1341-0.72656-1.8008-0.72656zm-5 7v1h16v-1h-16z" fill="currentColor"/>
</svg>
